li/gui-regex.svg

<svg role="img" focusable="false" aria-hidden="true" xmlns="http://www.w3.org/2000/svg" viewBox="0 0 14 14" height="1em" width="1em">
  <path d="M 8.6763196,5.2141345 C 8.6465822,4.7013154 8.542539,4.1922008 8.3641624,3.6867895 8.1114577,2.9584344 7.985109,2.4567523 7.9851132,2.1817415 7.985109,1.795275 8.0743013,1.501698 8.2526774,1.3010096 8.438481,1.1003523 8.6651667,1.0000158 8.9327369,1 9.1631328,1.0000158 9.3638064,1.1003522 9.534756,1.3010096 9.7056928,1.501698 9.7911635,1.7878426 9.791171,2.1594445 9.7911635,2.4939139 9.6908237,2.9621507 9.4901622,3.5641559 9.2969149,4.1587555 9.1779967,4.7087479 9.1334097,5.2141345 9.5421808,4.9540147 9.9100817,4.6381406 10.237111,4.2665117 c 0.505391,-0.5871415 0.880724,-0.9513254 1.126,-1.0925535 0.245259,-0.141201 0.494241,-0.2118075 0.746948,-0.2118216 0.245259,1.41e-5 0.449648,0.085487 0.613169,0.2564156 0.170933,0.163525 0.256406,0.3604817 0.256415,0.5908708 -9e-6,0.2750092 -0.122637,0.520276 -0.367899,0.7358012 -0.245278,0.2155498 -0.858445,0.4310876 -1.839505,0.6466133 -0.572298,0.1263616 -1.0479662,0.2712918 -1.4270081,0.4347917 0.3864749,0.200684 0.8584281,0.3530468 1.4158611,0.4570887 0.899304,0.163522 1.486457,0.367911 1.761463,0.6131677 0.282419,0.245277 0.423633,0.5128404 0.423644,0.8026924 -1.1e-5,0.222979 -0.08548,0.41622 -0.256417,0.579722 -0.16352,0.16352 -0.35676,0.245276 -0.579723,0.245267 -0.222978,9e-6 -0.47196,-0.07803 -0.746948,-0.234118 C 11.095539,7.934379 10.731354,7.585059 10.270557,7.042489 9.965824,6.6783149 9.5867745,6.3364277 9.1334097,6.0168268 9.1482607,6.4404804 9.2337427,6.9012847 9.3898247,7.399241 9.6573836,8.276266 9.7911635,8.874568 9.791171,9.19415 9.7911635,9.491451 9.701983,9.744151 9.5236075,9.952249 9.3452249,10.152929 9.1556998,10.253265 8.9550338,10.253259 8.6800313,10.253265 8.4310479,10.145496 8.2080834,9.929951 8.0519999,9.77388 7.9739598,9.524897 7.9739655,9.183002 7.9739598,8.826258 8.059429,8.398899 8.2303803,7.900924 8.4013189,7.395535 8.5090877,7.049931 8.5536874,6.8641131 8.598282,6.6708826 8.6391514,6.3884541 8.6763249,6.0168268 8.2378123,6.3066985 7.8550471,6.6300048 7.5280296,6.986747 6.9854653,7.596207 6.5766872,7.982689 6.3016942,8.146191 6.10845,8.265117 5.9077769,8.324576 5.6996749,8.324567 5.4469731,8.324576 5.2314349,8.239107 5.0530617,8.068152 4.8746827,7.897217 4.7854947,7.707692 4.7854975,7.499578 4.7854947,7.313779 4.8598165,7.120538 5.0084676,6.9198557 5.1645439,6.7117604 5.3949459,6.5408168 5.6996749,6.4070245 5.9003452,6.3178464 6.3574331,6.1989296 7.0709402,6.0502723 7.5317411,5.9536624 7.9813973,5.8124487 8.4199099,5.6266292 8.0185581,5.4259675 7.5391731,5.2698886 6.9817522,5.158392 6.067572,4.9651632 5.5027149,4.7905034 5.2871795,4.6344122 4.952723,4.3891576 4.7854947,4.0918645 4.7854975,3.742532 4.7854947,3.5418722 4.8672508,3.3597802 5.0307646,3.1962552 5.201706,3.0253254 5.3986631,2.9398537 5.6216347,2.9398396 5.8668989,2.9398537 6.1270311,3.0178926 6.40203,3.1739582 6.677023,3.3300509 7.0189101,3.6459248 7.4276924,4.1215811 7.8364661,4.5898305 8.2526774,4.9540147 8.6763249,5.2141345 M 2.9304228,9.179869 c 0.5391726,4e-6 0.9923109,0.189292 1.359416,0.567858 C 4.6569325,10.11483 4.840482,10.56223 4.8404884,11.089935 4.840482,11.617641 4.651197,12.070779 4.272631,12.44935 3.9055259,12.816451 3.4581236,13 2.9304228,13 2.4027131,13 1.9495748,12.816457 1.5710067,12.44935 1.2039043,12.070779 1.0203545,11.617641 1.0203571,11.089935 1.0203545,10.550759 1.203904,10.09762 1.5710067,9.730519 1.9495748,9.363422 2.4027131,9.179873 2.9304228,9.179869"/>
</svg>

<svg aria-hidden="true" xmlns="http://www.w3.org/2000/svg" viewBox="0 0 14 14" height="1em" width="1em">
  <path d="M8.676 5.214a5.533 5.533 0 0 0-.312-1.527c-.253-.729-.379-1.23-.379-1.505 0-.387.09-.68.268-.881A.892.892 0 0 1 8.933 1c.23 0 .43.1.602.301.17.2.256.487.256.858 0 .335-.1.803-.3 1.405a7.515 7.515 0 0 0-.358 1.65c.41-.26.777-.576 1.104-.947.506-.588.88-.952 1.126-1.093.245-.141.494-.212.747-.212.245 0 .45.086.613.257.171.163.257.36.257.59 0 .275-.123.52-.368.736-.246.216-.859.431-1.84.647a8.032 8.032 0 0 0-1.427.435c.387.2.859.353 1.416.457.9.163 1.487.368 1.762.613.282.245.423.513.423.803a.776.776 0 0 1-.256.58.793.793 0 0 1-.58.245c-.223 0-.472-.078-.747-.235-.267-.156-.632-.505-1.092-1.048a5.909 5.909 0 0 0-1.138-1.025c.015.423.1.884.257 1.382.267.877.401 1.476.401 1.795 0 .297-.089.55-.267.758-.179.2-.368.301-.569.301-.275 0-.524-.108-.747-.323-.156-.156-.234-.405-.234-.747 0-.357.085-.784.256-1.282.171-.505.28-.851.324-1.037.044-.193.085-.476.122-.847a6.15 6.15 0 0 0-1.148.97c-.543.61-.951.996-1.226 1.16a1.133 1.133 0 0 1-.602.178.9.9 0 0 1-.647-.257c-.178-.17-.268-.36-.268-.568 0-.186.075-.38.223-.58.157-.208.387-.38.692-.513.2-.09.657-.208 1.37-.357a7.284 7.284 0 0 0 1.35-.423 5.726 5.726 0 0 0-1.438-.469c-.914-.193-1.48-.367-1.695-.524-.334-.245-.502-.542-.502-.891 0-.201.082-.383.246-.547a.812.812 0 0 1 .59-.256c.246 0 .506.078.781.234.275.156.617.472 1.026.948.408.468.825.832 1.248 1.092M2.93 9.18c.54 0 .993.19 1.36.568.367.367.55.814.55 1.342 0 .528-.189.98-.567 1.36-.367.366-.815.55-1.343.55-.527 0-.98-.184-1.359-.55a1.884 1.884 0 0 1-.55-1.36c0-.54.183-.992.55-1.36.379-.367.832-.55 1.36-.55"/>
</svg>
